ui/public/imgs/providers/apisix.svg

<svg xmlns="http://www.w3.org/2000/svg" width="200" height="200" viewBox="26 41 448 403"><defs><linearGradient id="a" x1="25119.8" x2="21725.7" y1="11052.5" y2="21551.7" gradientTransform="translate(-492.867 -144.77)scale(.0281)" gradientUnits="userSpaceOnUse"><stop offset="0" style="stop-color:#a92f33"/><stop offset="1" style="stop-color:#e62129"/></linearGradient><linearGradient id="b" x1="27026.6" x2="30514.6" y1="8021.8" y2="16218.5" gradientTransform="translate(-492.867 -144.77)scale(.0281)" gradientUnits="userSpaceOnUse"><stop offset="0" style="stop-color:#a92f33"/><stop offset="1" style="stop-color:#e8443f"/></linearGradient><linearGradient id="c" x1="23046.1" x2="26713.9" y1="14340.2" y2="9900.07" gradientTransform="translate(-492.867 -144.77)scale(.0281)" gradientUnits="userSpaceOnUse"><stop offset="0" style="stop-color:#e62129"/><stop offset="1" style="stop-color:#e8443f"/></linearGradient></defs><path d="m156.005 337.641 91.279-132.409-28.769-45.037-84.086 99.791c-27.926 33.153-32.422 41.413-55.74 80.295l77.344-2.64Z" class="fil1" style="fill:url(#a)"/><path d="m382.616 340.281 37-.14L253.325 51.188l80.294 289.093h49.025ZM253.297 51.188l-42.058 69.506 8.456-13.962 33.602-55.516Z" class="fil2" style="fill:url(#b)"/><path d="M218.487 160.195 333.59 340.281 253.297 51.188l-33.573 55.515L78.661 340.281z" class="fil3" style="fill:url(#c)"/><path d="M116.292 266.849v11.42h-5.04v-1.17q-.2.44-.79.8-.6.37-1.08.37h-13.65a2.46 2.46 0 0 1-1.11-.28 2.4 2.4 0 0 1-.91-.81 2.07 2.07 0 0 1-.36-1.16l-.03-3.14-.02-2q0-1.42.76-2.23.75-.82 1.76-.82h12.91q.9 0 1.56.46.67.46.96.91v-1.53q0-.48-.28-.98a2.4 2.4 0 0 0-.82-.83q-.52-.32-1.23-.32h-15.45v-4.07h17.42q1.1 0 2.09.54.98.54 1.73 1.4t1.17 1.79q.41.92.41 1.65m-6 6.2a.86.86 0 0 0-.23-.58 1.8 1.8 0 0 0-.58-.43q-.35-.15-.56-.15h-9.53q-.65 0-.91.44-.26.45-.26.69 0 .52.34.84.33.31.67.31h9.96q.33 0 .72-.34.38-.35.38-.78m29.848-8.36v3.94q0 1.41-.68 2.38t-2.27.97h-13.75v6.29h-4.83v-10.34h15.71q.309 0 .63-.37.32-.36.32-.81 0-.43-.27-.72-.26-.3-.71-.44a3 3 0 0 0-.89-.14h-14.79v-3.98h18.12q1.89 0 2.65.91.76.92.76 2.31m7.372-3.22v16.78h-4.83v-16.78zm24.067 9.29v4.92q0 1.06-.61 1.83-.62.76-1.73.76h-19.44v-4.12h15.59q.42 0 .87-.3.46-.3.46-.91 0-.33-.19-.62a1.4 1.4 0 0 0-.58-.47 2.1 2.1 0 0 0-.85-.17h-11.8q-.84 0-1.5-.43-.669-.43-1.02-1-.36-.57-.36-.93v-5.45q0-.7.78-1.55t2.01-.85h17.46v3.98h-14.42q-.44 0-.71.38-.27.37-.27.78 0 .38.37.8t1.05.42h11.82q1.57 0 2.32.81t.75 2.12m7.689-9.29v16.78h-4.83v-16.78zm19.028 8.52 8.27 8.26h-6.73l-6.1-6.27-6.07 6.29h-6.84l8.33-8.35-7.34-8.43h5.9l5.91 6.34 6.04-6.34h6.26z" style="fill:#333;white-space:pre" transform="matrix(3.87696 0 0 3.32031 -331.392 -484.11)"/></svg>

<svg viewBox="0 0 500 500" xmlns="http://www.w3.org/2000/svg"><defs><linearGradient id="id0" gradientUnits="userSpaceOnUse" x1="25119.8" y1="11052.5" x2="21725.7" y2="21551.7" gradientTransform="matrix(0.028095, 0, 0, 0.028095, -492.867096, -144.769821)"><stop offset="0" style="stop-color:#A92F33"/><stop offset="1" style="stop-color:#E62129"/></linearGradient><linearGradient id="id1" gradientUnits="userSpaceOnUse" x1="27026.6" y1="8021.8" x2="30514.6" y2="16218.5" gradientTransform="matrix(0.028095, 0, 0, 0.028095, -492.867096, -144.769821)"><stop offset="0" style="stop-color:#A92F33"/><stop offset="1" style="stop-color:#E8443F"/></linearGradient><linearGradient id="id2" gradientUnits="userSpaceOnUse" x1="23046.1" y1="14340.2" x2="26713.9" y2="9900.07" gradientTransform="matrix(0.028095, 0, 0, 0.028095, -492.867096, -144.769821)"><stop offset="0" style="stop-color:#E62129"/><stop offset="1" style="stop-color:#E8443F"/></linearGradient></defs><path class="fil1" d="M 156.005 337.641 L 247.284 205.232 L 218.515 160.195 L 134.429 259.986 C 134.429 259.986 134.429 259.986 134.429 259.986 C 134.429 259.986 134.429 259.986 134.429 259.986 C 106.503 293.139 102.007 301.399 78.689 340.281 L 156.033 337.641 Z" style="fill: url(#id0);"/><path class="fil2" d="M 382.616 340.281 L 419.616 340.141 L 253.325 51.188 L 253.325 51.188 L 333.619 340.281 L 382.644 340.281 Z M 253.297 51.188 L 211.239 120.694 L 219.695 106.732 L 253.297 51.216 Z" style="fill: url(#id1);"/><polygon class="fil3" points="218.487 160.195 333.59 340.281 253.297 51.188 253.297 51.188 253.297 51.188 219.724 106.703 78.661 340.281" style="fill: url(#id2);"/><path d="M 116.292 266.849 L 116.292 278.269 L 111.252 278.269 L 111.252 277.099 C 111.119 277.392 110.855 277.659 110.462 277.899 C 110.062 278.146 109.702 278.269 109.382 278.269 L 95.732 278.269 C 95.365 278.269 94.995 278.176 94.622 277.989 C 94.249 277.796 93.945 277.526 93.712 277.179 C 93.479 276.839 93.359 276.452 93.352 276.019 C 93.345 275.192 93.335 274.146 93.322 272.879 C 93.309 271.612 93.302 270.946 93.302 270.879 C 93.302 269.932 93.555 269.189 94.062 268.649 C 94.562 268.102 95.149 267.829 95.822 267.829 L 108.732 267.829 C 109.332 267.829 109.852 267.982 110.292 268.289 C 110.739 268.596 111.059 268.899 111.252 269.199 L 111.252 267.669 C 111.252 267.349 111.159 267.022 110.972 266.689 C 110.779 266.356 110.505 266.079 110.152 265.859 C 109.805 265.646 109.395 265.539 108.922 265.539 L 93.472 265.539 L 93.472 261.469 L 110.892 261.469 C 111.625 261.469 112.322 261.649 112.982 262.009 C 113.635 262.369 114.212 262.836 114.712 263.409 C 115.212 263.982 115.602 264.579 115.882 265.199 C 116.155 265.812 116.292 266.362 116.292 266.849 Z M 110.292 273.049 C 110.292 272.836 110.215 272.642 110.062 272.469 C 109.902 272.289 109.709 272.146 109.482 272.039 C 109.249 271.939 109.062 271.889 108.922 271.889 L 99.392 271.889 C 98.959 271.889 98.655 272.036 98.482 272.329 C 98.309 272.629 98.222 272.859 98.222 273.019 C 98.222 273.366 98.335 273.646 98.562 273.859 C 98.782 274.066 99.005 274.169 99.232 274.169 L 109.192 274.169 C 109.412 274.169 109.652 274.056 109.912 273.829 C 110.165 273.596 110.292 273.336 110.292 273.049 ZM 140.14 264.689 L 140.14 268.629 C 140.14 269.569 139.913 270.362 139.46 271.009 C 139.006 271.656 138.25 271.979 137.19 271.979 L 123.44 271.979 L 123.44 278.269 L 118.61 278.269 L 118.61 267.929 L 134.32 267.929 C 134.526 267.929 134.736 267.806 134.95 267.559 C 135.163 267.319 135.27 267.049 135.27 266.749 C 135.27 266.462 135.18 266.222 135 266.029 C 134.826 265.829 134.59 265.682 134.29 265.589 C 133.996 265.496 133.7 265.449 133.4 265.449 L 118.61 265.449 L 118.61 261.469 L 136.73 261.469 C 137.99 261.469 138.873 261.772 139.38 262.379 C 139.886 262.992 140.14 263.762 140.14 264.689 ZM 147.512 261.469 L 147.512 278.249 L 142.682 278.249 L 142.682 261.469 L 147.512 261.469 ZM 171.579 270.759 L 171.579 275.679 C 171.579 276.386 171.376 276.996 170.969 277.509 C 170.556 278.016 169.979 278.269 169.239 278.269 L 149.799 278.269 L 149.799 274.149 L 165.389 274.149 C 165.669 274.149 165.959 274.049 166.259 273.849 C 166.566 273.649 166.719 273.346 166.719 272.939 C 166.719 272.719 166.656 272.512 166.529 272.319 C 166.396 272.126 166.203 271.969 165.949 271.849 C 165.689 271.736 165.406 271.679 165.099 271.679 L 153.299 271.679 C 152.739 271.679 152.239 271.536 151.799 271.249 C 151.353 270.962 151.013 270.629 150.779 270.249 C 150.539 269.869 150.419 269.559 150.419 269.319 L 150.419 263.869 C 150.419 263.402 150.679 262.886 151.199 262.319 C 151.719 261.752 152.389 261.469 153.209 261.469 L 170.669 261.469 L 170.669 265.449 L 156.249 265.449 C 155.956 265.449 155.719 265.576 155.539 265.829 C 155.359 266.076 155.269 266.336 155.269 266.609 C 155.269 266.862 155.393 267.129 155.639 267.409 C 155.886 267.689 156.236 267.829 156.689 267.829 L 168.509 267.829 C 169.556 267.829 170.329 268.099 170.829 268.639 C 171.329 269.179 171.579 269.886 171.579 270.759 ZM 179.268 261.469 L 179.268 278.249 L 174.438 278.249 L 174.438 261.469 L 179.268 261.469 ZM 198.296 269.989 L 206.566 278.249 L 199.836 278.249 L 193.736 271.979 L 187.666 278.269 L 180.826 278.269 L 189.156 269.919 L 181.816 261.489 L 187.716 261.489 L 193.626 267.829 L 199.666 261.489 L 205.926 261.489 L 198.296 269.989 Z" transform="matrix(3.876957893371582, 0, 0, 3.3203139305114746, -331.3923645019531, -484.109130859375)" style="fill: rgb(51, 51, 51); white-space: pre;"/></svg>
